X:1951
T:Adagio
C:anon.
O:Germany
B:From a 1748 ms.
Z:Transcribed by Frank Nordberg - http://www.musicaviva.com
F:http://abc.musicaviva.com/tunes/germany/anon-adagio-01.abc
V:1 Program 1 6 %Harpsichord
V:2 Program 1 6 bass %Harpsichord
M:C
L:1/8
Q:1/4=40
K:C
V:1
G|c/d/e/f/ gG c/d/e/f/ gG|A/B/c/d/ e/e/f/g/ f2 ed|\
e/d/e/c/ dg c/B/c/A/ Bd|e/^f/g/A/ A>G G2 z::z|
V:2
z|C,C,B,,B,, A,,A,,G,,G,|F,F,E,E,D,2C,B,,|\
C,2 B,,/A,,/B,,/G,,/ A,,^F,, G,,/A,,/B,,/G,,/|C,A,,D,D,,G,,2 z::z|
V:1
G/A/B/c/ dD G/A/B/c/ dD|E/^F/G/A/ B/B/c/d/c2Bd|e/d/e/c/ ff ddee|\
c/B/c/A/ dd B/A/B/G/ cg|fd d>cc2 z:|
V:2 
G,,G,,^F,,F,, E,,E,D,D,|C,C,B,,B,,A,,2G,,B,,|\
C,C, D,/C,/D,/A,,/ B,,/A,,/B,,/G,,/ C,/B,,/C,/G,,/|\
A,,A, F,/E,/F,/D,/ G,G, E,/D,/E,/C,/|D,/E,/F,/D,/ G,G,, C,2 z:|
W:
W:
W:  From Musica Viva - http://www.musicaviva.com
W:  the Internet center for free sheet music downloads.
